packages/icons/svg/Fill/list.svg

<svg width="24" height="24" viewBox="0 0 24 24" fill="none" xmlns="http://www.w3.org/2000/svg">
<g id="Icon/Fill/list">
<path id="Mask" fill-rule="evenodd" clip-rule="evenodd" d="M3 7C3 6.448 3.448 6 4 6C4.552 6 5 6.448 5 7C5 7.552 4.552 8 4 8C3.448 8 3 7.552 3 7ZM3 12C3 11.448 3.448 11 4 11C4.552 11 5 11.448 5 12C5 12.552 4.552 13 4 13C3.448 13 3 12.552 3 12ZM4 16C3.448 16 3 16.448 3 17C3 17.552 3.448 18 4 18C4.552 18 5 17.552 5 17C5 16.448 4.552 16 4 16ZM7.9355 11H20.0645C20.5795 11 21.0005 11.421 21.0005 11.936V12.064C21.0005 12.579 20.5795 13 20.0645 13H7.9355C7.4205 13 7.0005 12.579 7.0005 12.064V11.936C7.0005 11.421 7.4205 11 7.9355 11ZM20.0645 16H7.9355C7.4205 16 7.0005 16.421 7.0005 16.936V17.064C7.0005 17.579 7.4205 18 7.9355 18H20.0645C20.5795 18 21.0005 17.579 21.0005 17.064V16.936C21.0005 16.421 20.5795 16 20.0645 16ZM7.9355 6H20.0645C20.5795 6 21.0005 6.421 21.0005 6.936V7.064C21.0005 7.579 20.5795 8 20.0645 8H7.9355C7.4205 8 7.0005 7.579 7.0005 7.064V6.936C7.0005 6.421 7.4205 6 7.9355 6Z" fill="#000000"/>
</g>
</svg>

<svg fill="none" height="24" viewBox="0 0 24 24" width="24" xmlns="http://www.w3.org/2000/svg"><path clip-rule="evenodd" d="m3 7c0-.552.448-1 1-1s1 .448 1 1-.448 1-1 1-1-.448-1-1zm0 5.0001c0-.552.448-1 1-1s1 .448 1 1-.448 1-1 1-1-.448-1-1zm1 3.9998c-.552 0-1 .448-1 1s.448 1 1 1 1-.448 1-1-.448-1-1-1zm3.9355-4.9998h12.129c.515 0 .936.421.936.936v.128c0 .515-.421.936-.936.936h-12.129c-.515 0-.935-.421-.935-.936v-.128c0-.515.42-.936.935-.936zm12.129 4.9998h-12.129c-.515 0-.935.421-.935.936v.128c0 .515.42.936.935.936h12.129c.515 0 .936-.421.936-.936v-.128c0-.515-.421-.936-.936-.936zm-12.129-9.9999h12.129c.515 0 .936.421.936.936v.128c0 .515-.421.936-.936.936h-12.129c-.515 0-.935-.421-.935-.936v-.128c0-.515.42-.936.935-.936z" fill="#6b7280" fill-rule="evenodd"/></svg>
